X: 0943
T: Whiskey for ever
%R: slip-jig
N: This is version 1, for ABC software that doesn't understand voice overlays
Z: 2017 John Chambers <jc:trillian.mit.edu>
B: Skillern & Challoner "A Favorite Collection of Popular Country Dances", London 1809, No. 9 p.4 #3
F: https://archive.org/search.php?query=Country%20Dances
F: https://archive.org/details/SkillernChallonerCountryDances9
M: 9/8
L: 1/8
K: G
%%slurgraces 1
%%graceslurs 1
% - - - - - - - - - - - - - - - - - - - - - - - - -
V: 1 staves=2
|: "^8va  _  _  _"\
G3 BAG ABc | d2B G2B AFD |\
{A}GFG BAG ABc | d2B (dc).A G2 "^N.C."z :|
|: "^loco"\
g2g {g}fef g2^g | a2a ^gab a2=g |\
(fed cBA GFA | G2)B DEF G2z :|
% - - - - - - - - - - - - - - - - - - - - - - - - -
V: 2 clef=bass middle=D
|:\
GBd GBd Fcd | GBd GBd DAc |\
GBd GBd Fcd | GBd DFc [B2G2]z :|
|:\
([B3G3] [c3A3] [d3B3] | [e3c3] [=f3d3] [e2c2])^c |\
d3 D3- [c3A3D3] | [B3G3] ([c3A3D3] [B2G2])z :|
% - - - - - - - - - - - - - - - - - - - - - - - - -
%%begintext align
%% Change sides, back again
%% down the middle up again
%% and turn your partner.
%%endtext
% - - - - - - - - - - - - - - - - - - - - - - - - -
%%sep 1 5 500
